X:8
T:8 Lord Cornwallis' Hornpipe
C:Welch Ms
N:Final rest in A music added by MG
I:abc2nwc
M:C
L:1/8
K:D
A|d2dA FGAF|D2d2d2e2|gaba gfed|cdBc A2GF|
G2eG F2dF|EFGA GFED|Dc'gf gedc|d2d2d2z:|
a| (3(faf) d2 (3(faf) d2|c'2g2g2a2| (3(gbg) e2 (3(gbg) e2|c'2a2a2ag|
gabg fgaf|efge dcBA|Aagf gedc|d2d2d2z:|

